X:2257
T:Bucket,The. HSJJ.171
M:9/8
L:1/8
Q:120
S:HSJ Jackson,Wyresdale,Lancs.1823
R:Slip Jig
O:England
A:Lancashire
H:1823
Z:vmp.Chris Partington.
K:G
c|Bcd dBGG2d|(e/f/g)e dBGG2c|Bcd dBGG2B|ABA AFDD2:|!
|;c|c2B EFEE2c|B2E EFED2c|B2E EFE EFG|ABA AFDD2:|]


